src/assets/svg/icons/fa/nuevos/classic/light/crosshairs classic light.svg

<svg xmlns="http://www.w3.org/2000/svg" viewBox="0 0 512 512"><path d="M232 256C232 242.7 242.7 232 256 232C269.3 232 280 242.7 280 256C280 269.3 269.3 280 256 280C242.7 280 232 269.3 232 256zM256 0C264.8 0 272 7.164 272 16V48.61C374.1 56.37 455.6 137.9 463.4 240H496C504.8 240 512 247.2 512 256C512 264.8 504.8 272 496 272H463.4C455.6 374.1 374.1 455.6 272 463.4V496C272 504.8 264.8 512 256 512C247.2 512 240 504.8 240 496V463.4C137.9 455.6 56.37 374.1 48.61 272H16C7.164 272 0 264.8 0 256C0 247.2 7.164 240 16 240H48.61C56.37 137.9 137.9 56.37 240 48.61V16C240 7.164 247.2 0 256 0V0zM240 431.3V384C240 375.2 247.2 368 256 368C264.8 368 272 375.2 272 384V431.3C356.4 423.7 423.7 356.4 431.3 272H384C375.2 272 368 264.8 368 256C368 247.2 375.2 240 384 240H431.3C423.7 155.6 356.4 88.33 272 80.72V128C272 136.8 264.8 144 256 144C247.2 144 240 136.8 240 128V80.72C155.6 88.33 88.33 155.6 80.72 240H128C136.8 240 144 247.2 144 256C144 264.8 136.8 272 128 272H80.72C88.33 356.4 155.6 423.7 240 431.3z"/></svg>

<svg xmlns="http://www.w3.org/2000/svg" viewBox="0 0 512 512"><!--! Font Awesome Pro 6.4.0 by @fontawesome - https://fontawesome.com License - https://fontawesome.com/license (Commercial License) Copyright 2023 Fonticons, Inc. --><path d="M256 0c8.8 0 16 7.2 16 16V48.6C374.1 56.4 455.6 137.9 463.4 240H496c8.8 0 16 7.2 16 16s-7.2 16-16 16H463.4C455.6 374.1 374.1 455.6 272 463.4V496c0 8.8-7.2 16-16 16s-16-7.2-16-16V463.4C137.9 455.6 56.4 374.1 48.6 272H16c-8.8 0-16-7.2-16-16s7.2-16 16-16H48.6C56.4 137.9 137.9 56.4 240 48.6V16c0-8.8 7.2-16 16-16zM80.7 272c7.6 84.4 74.8 151.7 159.3 159.3V384c0-8.8 7.2-16 16-16s16 7.2 16 16v47.3c84.4-7.6 151.7-74.8 159.3-159.3H384c-8.8 0-16-7.2-16-16s7.2-16 16-16h47.3C423.7 155.6 356.4 88.3 272 80.7V128c0 8.8-7.2 16-16 16s-16-7.2-16-16V80.7C155.6 88.3 88.3 155.6 80.7 240H128c8.8 0 16 7.2 16 16s-7.2 16-16 16H80.7zM256 232a24 24 0 1 1 0 48 24 24 0 1 1 0-48z"/></svg>
